!!!!SEGMENT: pl-sa--83-a-ii-23--001_anonim--msza-kyrie.krn
!!!cenid: 17xx:1515
!!!COM: Anonim
!!!COM-rismid: pe30004985
!!!CDT:
!!!CNT:
!!!OPR: Msza
!!!OTL: Kyrie
!!!OMV: 001
!!!PDT:
!!!AGN: Sacred; Mass
!!!SMS-siglum: PL-SA
!!!SMS-shelfmark: 83/A II 23
!!!SMS-shelfwork: 001-001 M
!!!SMS-variant:
!!!SMS-altvar:
!!!NIFC-rismid: 1001035463
!!!URL-scan: http://bc.bdsandomierz.pl/dlibra/publication/1361/edition/1329/content
!!!ONB-nifc: UWAGA: części Mszy: 1. Kyrie, 2. Gloria, 3. Credo, 4. Sanctus, 5. Agnus Dei. Uwaga: część Sanctus zawiera Benedictus
!!!key: C
**kern	**kern	**text	**kern	**text	**kern	**text	**kern	**text	**kern	**text	**kern	**text	**kern	**text
*part8	*part7	*part7	*part6	*part6	*part5	*part5	*part4	*part4	*part3	*part3	*part2	*part2	*part1	*part1
*staff8	*staff7	*staff7	*staff6	*staff6	*staff5	*staff5	*staff4	*staff4	*staff3	*staff3	*staff2	*staff2	*staff1	*staff1
*I"Baſso	*I"BAſSO IIdo	*	*I"BAſSO Imo	*	*I"TENORE unisono	*	*I"ALTO IIdo	*	*I"ALTO Imo	*	*I"CANTO IIdo	*	*I"CANTO Imo	*
*I'b	*I'B II	*	*I'B I	*	*I'T	*	*I'A II	*	*I'A I	*	*I'S II	*	*I'S I	*
*ICklav	*ICvox	*	*ICvox	*	*ICvox	*	*ICvox	*	*ICvox	*	*ICvox	*	*ICvox	*
*Iorgan	*Ibass	*	*Ibass	*	*Itenor	*	*Ialto	*	*Ialto	*	*Isoprn	*	*Isoprn	*
*clefF4	*clefF4	*	*clefF4	*	*clefC4	*	*clefC3	*	*clefC3	*	*clefC1	*	*clefC1	*
*k[]	*k[]	*	*k[]	*	*k[]	*	*k[]	*	*k[]	*	*k[]	*	*k[]	*
*C:	*C:	*	*C:	*	*C:	*	*C:	*	*C:	*	*C:	*	*C:	*
*M3/2	*M3/2	*	*M3/2	*	*M3/2	*	*M3/2	*	*M3/2	*	*M3/2	*	*M3/2	*
=1	=1	=1	=1	=1	=1	=1	=1	=1	=1	=1	=1	=1	=1	=1
!!LO:TX:t=P:problem:2\right or middle	!	!	!	!	!	!	!	!	!	!	!	!	!LO:TX:t=P:problem:oddech na dole:global	!
2.c\	2.C/	Ky-	2.c\	Ky-	2.c\	Ky-	2.e\	Ky-	2.g\	Ky-	2.cc\	Ky-	2.ee\	Ky-
4G\	4C/	-ri-	4G\	-ri-	4d\	-ri-	4e\	-ri-	4g\	-ri-	4b\	-ri-	4dd\	-ri-
2c\	2C/	-e	2c\	-e	2c\	-e	2e\	-e	2g\	-e	2cc\	-e	2ee\	-e
=2	=2	=2	=2	=2	=2	=2	=2	=2	=2	=2	=2	=2	=2	=2
*	*	*	*	*ij	*	*	*	*	*	*ij	*	*ij	*	*
2.F\	2.F\	Ky-	2.F\	Ky-	2.f\	Ky-	2.f\	Ky-	2.a\	Ky-	2.cc\	Ky-	2.ff\	Ky-
4C/	4C/	-ri-	4C/	-ri-	4c\	-ri-	4e\	-ri-	4g\	-ri-	4cc\	-ri-	4ff\	-ri-
2F\	2F\	-e	2F\	-e	2f\	-e	2f\	-e	2a\	-e	2cc\	-e	2ff\	-e
*	*	*	*	*Xij	*	*	*	*	*	*Xij	*	*Xij	*	*
=3	=3	=3	=3	=3	=3	=3	=3	=3	=3	=3	=3	=3	=3	=3
2c\	2E\	e-	2c\	e-	2c\	e-	2e\	e-	2g\	e-	2cc\	e-	2ee\	e-
(2G\	1D	-lei-	(2G\	-lei-	(2d\	-lei-	1d	-lei-	1g	-lei-	2b\	-lei-	1dd	-lei-
2GG/)	.	.	2GG/)	.	2B\)	.	.	.	.	.	2dd\	.	.	.
=4	=4	=4	=4	=4	=4	=4	=4	=4	=4	=4	=4	=4	=4	=4
1.C	1.C	-son	1.C	-son	1.c	-son	1.e	-ſon	1.g	-son	1.ee	-son	1.cc	-son
=5	=5	=5	=5	=5	=5	=5	=5	=5	=5	=5	=5	=5	=5	=5
2.G\	2.G\	Ky-	2.G\	Ky-	2.G/	Ky-	2.e\	Ky-	2.g\	Ky-	2.b\	Ky-	2.dd\	Ky-
4G\	4G\	-ri-	4G\	-ri-	4G/	-ri-	4e\	-ri-	4g\	-ri-	4b\	-ri-	4dd\	-ri-
2G\	2G\	-e	2G\	-e	2G/	-e	2e\	-e	2g\	-e	2b\	-e	2dd\	-e
=6	=6	=6	=6	=6	=6	=6	=6	=6	=6	=6	=6	=6	=6	=6
*	*	*ij	*	*ij	*	*	*	*ij	*	*ij	*	*ij	*	*ij
2.c\	2.C/	Ky-	2.c\	Ky-	2.c\	Ky-	2.e\	Ky-	2.g\	Ky-	2.cc\	Ky-	2.ee\	Ky-
4c\	4C/	-ri-	4c\	-ri-	4c\	-ri-	4e\	-ri-	4g\	-ri-	4cc\	-ri-	4ee\	-ri-
2c\	2C/	-e	2c\	-e	2c\	-e	2e\	-e	2g\	-e	2cc\	-e	2ee\	-e
*	*	*Xij	*	*Xij	*	*	*	*Xij	*	*Xij	*	*Xij	*	*Xij
!	!	!	!	!	!	!	!	!	!LO:LB:g=original	!	!LO:LB:g=original	!	!	!
=7	=7	=7	=7	=7	=7	=7	=7	=7	=7	=7	=7	=7	=7	=7
2B\	4BB/	e-	2B\	e-	2d\	e-	2e\	e-	2g\	e-	2b\	e-	2dd\	e-
.	4C/	-lei-	.	.	.	.	.	.	.	.	.	.	.	.
1A	2D/	.	1A	-lei-	1d	-lei-	1d	-lei-	(2g\	-lei-	1a	-lei-	1cc	-lei-
.	2DD/	.	.	.	.	.	.	.	2f#X\)	.	.	.	.	.
!LO:LB:g=original	!LO:LB:g=original	!	!LO:LB:g=original	!	!	!	!LO:LB:g=original	!	!	!	!	!	!LO:LB:g=original	!
=8	=8	=8	=8	=8	=8	=8	=8	=8	=8	=8	=8	=8	=8	=8
1.G	1.GG	-son	1.G	-son	1.d	-son	1.d	-son	1.g	-son	1.g	-son	1.b	-son
!	!	!	!	!	!LO:LB:g=original	!	!	!	!	!	!	!	!	!
=9	=9	=9	=9	=9	=9	=9	=9	=9	=9	=9	=9	=9	=9	=9
2.C/	2.C/	Ky-	2.C/	Ky-	2.e\	Ky-	2.e\	Ky-	2.g\	Ky-	2.ee\	Ky-	2.cc\	Ky-
4C/	4C/	-ri-	4C/	-ri-	4d\	-ri-	4e\	-ri-	4g\	-ri-	4ee\	-ri-	4cc\	-ri-
2C/	2C/	-e	2C/	-e	2c\	-e	2e\	-e	2g\	-e	2ee\	-e	2cc\	-e
=10	=10	=10	=10	=10	=10	=10	=10	=10	=10	=10	=10	=10	=10	=10
*	*	*ij	*	*ij	*	*ij	*	*ij	*	*ij	*	*ij	*	*ij
2.G\	2.G\	Ky-	2.G\	Ky-	2.g\	Ky-	2.d\	Ky-	2.g\	Ky-	2.b\	Ky-	2.dd\	Ky-
4G\	4G\	-ri-	4G\	-ri-	4g\	-ri-	4d\	-ri-	4g\	-ri-	4b\	-ri-	4dd\	-ri-
2G\	2G\	-e	2G\	-e	2g\	-e	2d\	-e	2g\	-e	2b\	-e	2dd\	-e
*	*	*	*	*	*	*	*	*	*	*	*	*	*	*Xij
=11	=11	=11	=11	=11	=11	=11	=11	=11	=11	=11	=11	=11	=11	=11
2.c\	2.C/	Ky-	2.c\	Ky-	2.e\	Ky-	2.e\	Ky-	2.g\	Ky-	2.cc\	Ky-	2.ee\	Ky-
4C/	4C/	-ri-	4C/	-ri-	4c\	-ri-	4e\	-ri-	4g\	-ri-	4cc\	-ri-	4ee\	-ri-
2C/	2C/	-e	2C/	-e	2c\	-e	2e\	-e	2g\	-e	2cc\	-e	2ee\	-e
*	*	*Xij	*	*Xij	*	*	*	*	*	*	*	*	*	*
=12	=12	=12	=12	=12	=12	=12	=12	=12	=12	=12	=12	=12	=12	=12
*	*	*	*	*	*	*	*	*	*	*	*	*	*	*ij
2.F\	2.F\	Ky-	2.F\	Ky-	2.c\	Ky-	2.f\	Ky-	2.a\	Ky-	2.cc\	Ky-	2.ff\	Ky-
4F\	4F\	-ri-	4F\	-ri-	4c\	-ri-	4f\	-ri-	4a\	-ri-	4cc\	-ri-	4ff\	-ri-
2F\	2F\	-e	2F\	-e	2c\	-e	2f\	-e	2a\	-e	2cc\	-e	2ff\	-e
*	*	*	*	*	*	*Xij	*	*Xij	*	*Xij	*	*Xij	*	*Xij
=13	=13	=13	=13	=13	=13	=13	=13	=13	=13	=13	=13	=13	=13	=13
(4E\	4E\	e-	(4E\	e-	4c\	e-	2e\	e-	2g\	e-	2cc\	e-	2ee\	e-
4F\)	4F\	-lei-	4F\)	.	4e\	-lei-	.	.	.	.	.	.	.	.
2G\	2G\	.	2G\	-lei-	2d\	.	1d	-lei-	1g	-lei-	1b	-lei-	1dd	-lei-
2GG/	2GG/	.	2GG/	.	2B\	.	.	.	.	.	.	.	.	.
=14	=14	=14	=14	=14	=14	=14	=14	=14	=14	=14	=14	=14	=14	=14
!LO:N:vis=2	!	!	!	!	!	!	!	!	!	!	!	!	!	!
1C	2C/	-son	1C	-son	1c	-son	1e	-son	1g	-son	1cc	-son	1cc	-son
.	2r	.	.	.	.	.	.	.	.	.	.	.	.	.
2c\	2r	.	2c\	e-	2r	.	2e\	e-	2g\	e-	2r	.	2r	.
=15	=15	=15	=15	=15	=15	=15	=15	=15	=15	=15	=15	=15	=15	=15
2c\	2r	.	2c\	-lei-	1.r	.	2.e\	-lei-	2.g\	-lei-	1.r	.	1.r	.
2C/	2r	.	2C/	-son	.	.	.	.	.	.	.	.	.	.
!	!	!	!	!	!	!	!	!	!LO:LB:g=original	!	!	!	!	!
.	.	.	.	.	.	.	4d\	.	4f\	.	.	.	.	.
2r	2c\	e-	2r	.	.	.	4e\	.	4g\	.	.	.	.	.
.	.	.	.	.	.	.	4d\	.	4f\	.	.	.	.	.
!	!	!	!LO:LB:g=original	!	!	!	!	!	!	!	!	!	!	!
=16	=16	=16	=16	=16	=16	=16	=16	=16	=16	=16	=16	=16	=16	=16
2r	2c\	-lei-	2r	.	1.r	.	2c\	.	2e\	.	1.r	.	1.r	.
2r	2C/	-son	2r	.	.	.	2c\	-son	2e\	-son	.	.	.	.
2c\	2r	.	2c\	e-	.	.	2g\	e-	2e\	e-	.	.	.	.
!LO:LB:g=original	!LO:LB:g=original	!	!	!	!	!	!LO:LB:g=original	!	!	!	!	!	!	!
=17	=17	=17	=17	=17	=17	=17	=17	=17	=17	=17	=17	=17	=17	=17
2c\	2r	.	2c\	-lei-	1.r	.	2.g\	-lei-	2.e\	-lei-	1.r	.	1.r	.
2C/	2r	.	2C/	-son	.	.	.	.	.	.	.	.	.	.
.	.	.	.	.	.	.	4f\	.	4d\	.	.	.	.	.
2r	2c\	e-	2r	.	.	.	4g\	.	4e\	.	.	.	.	.
.	.	.	.	.	.	.	4f\	.	4d\	.	.	.	.	.
=18	=18	=18	=18	=18	=18	=18	=18	=18	=18	=18	=18	=18	=18	=18
2r	2c\	-lei-	2r	.	1.r	.	2e\	.	2c\	.	1.r	.	2r	.
2r	2C/	-son	2r	.	.	.	2e\	-son	2c\	-son	.	.	2r	.
*	*	*	*	*ij	*	*	*	*	*	*	*	*	*	*
2c\	2r	.	2c\	e-	.	.	2e\	e-	2c\	e-	.	.	2gg\	e-
=19	=19	=19	=19	=19	=19	=19	=19	=19	=19	=19	=19	=19	=19	=19
2c\	2r	.	2c\	-lei-	1.r	.	2c\	-lei-	2c\	-lei-	1.r	.	2.gg\	-lei-
2C/	2r	.	2C/	-son	.	.	2c\	-son	2c\	-son	.	.	.	.
.	.	.	.	.	.	.	.	.	.	.	.	.	4ff\	.
*	*	*ij	*	*	*	*	*	*ij	*	*	*	*	*	*
2r	2c\	e-	2r	.	.	.	2c\	e-	2c\	e-	.	.	4gg\	.
.	.	.	.	.	.	.	.	.	.	.	.	.	4ff\	.
!	!	!	!	!	!	!	!	!	!	!	!LO:LB:g=original	!	!LO:LB:g=original	!
=20	=20	=20	=20	=20	=20	=20	=20	=20	=20	=20	=20	=20	=20	=20
2r	2c\	-lei-	2r	.	1.r	.	2c\	-lei-	2e\	-lei-	2r	.	2ee\	.
2r	2C/	-son	2r	.	.	.	2c\	-son	2e\	-son	2r	.	2ee\	-son
*	*	*	*	*	*	*	*	*	*	*ij	*	*	*	*
2c\	2r	.	2c\	e-	.	.	2c\	e-	2e\	e-	2gg\	e-	2ee\	e-
=21	=21	=21	=21	=21	=21	=21	=21	=21	=21	=21	=21	=21	=21	=21
2c\	2r	.	2c\	-lei-	1.r	.	2e\	-lei-	2c\	-lei-	2.gg\	-lei-	2.ee\	-lei-
2C/	2r	.	2C/	-son	.	.	2e\	-son	2c\	-son	.	.	.	.
*	*	*	*	*	*	*	*	*	*	*Xij	*	*	*	*
.	.	.	.	.	.	.	.	.	.	.	4ff\	.	4dd\	.
2r	2c\	e-	2r	.	.	.	2e\	e-	2c\	e-	4gg\	.	4ee\	.
.	.	.	.	.	.	.	.	.	.	.	4ff\	.	4dd\	.
!	!	!	!	!	!	!	!	!	!LO:LB:g=original	!	!	!	!	!
=22	=22	=22	=22	=22	=22	=22	=22	=22	=22	=22	=22	=22	=22	=22
2r	2c\	-lei-	2r	.	2r	.	2c\	-lei-	2e\	-lei-	2ee\	.	2cc\	.
2r	2C/	-son	2r	.	2r	.	2c\	-son	2e\	-son	2ee\	-son	2cc\	-son
2c\	2r	.	2c\	e-	2g\	e-	2c\	e-	2e\	e-	2ee\	e-	2cc\	e-
=23	=23	=23	=23	=23	=23	=23	=23	=23	=23	=23	=23	=23	=23	=23
2c\	2r	.	2c\	-lei-	2.g\	-lei-	2e\	-lei-	2c\	-lei-	2cc\	-lei-	2cc\	-lei-
2C/	2r	.	2C/	-son	.	.	2e\	-son	2c\	-son	2cc\	-son	2cc\	-son
.	.	.	.	.	4f\	.	.	.	.	.	.	.	.	.
*	*	*	*	*Xij	*	*	*	*	*	*ij	*	*ij	*	*ij
2r	2c\	e-	2r	.	4g\	.	2e\	e-	2c\	e-	2cc\	e-	2cc\	e-
.	.	.	.	.	4f\	.	.	.	.	.	.	.	.	.
!	!	!	!	!	!LO:LB:g=original	!	!	!	!	!	!	!	!	!
=24	=24	=24	=24	=24	=24	=24	=24	=24	=24	=24	=24	=24	=24	=24
2r	2c\	-lei-	2r	.	2e\	.	2c\	-lei-	2e\	-lei-	2cc\	-lei-	2cc\	-lei-
2r	2C/	-son	2r	.	2e\	-son	2c\	-son	2e\	-son	2cc\	-son	2cc\	-son
*	*	*Xij	*	*	*	*	*	*Xij	*	*	*	*	*	*
2G\	2r	.	2G\	e-	2e\	e-	2c\	e-	2e\	e-	2cc\	e-	2cc\	e-
!	!	!	!LO:LB:g=original	!	!	!	!LO:LB:g=original	!	!	!	!	!	!	!
=25	=25	=25	=25	=25	=25	=25	=25	=25	=25	=25	=25	=25	=25	=25
2.G\	1.r	.	2.G\	-lei-	2.e\	-lei-	2e\	-lei-	2c\	-lei-	2cc\	-lei-	2cc\	-lei-
.	.	.	.	.	.	.	2e\	-son	2c\	-son	2cc\	-son	2cc\	-son
4F\	.	.	4F\	.	4d\	.	.	.	.	.	.	.	.	.
*	*	*	*	*	*	*	*	*ij	*	*	*	*	*	*
4G\	.	.	4G\	.	4e\	.	2e\	e-	2c\	e-	2cc\	e-	2cc\	e-
4F\	.	.	4F\	.	4d\	.	.	.	.	.	.	.	.	.
!LO:LB:g=original	!	!	!	!	!	!	!	!	!	!	!	!	!	!
=26	=26	=26	=26	=26	=26	=26	=26	=26	=26	=26	=26	=26	=26	=26
2E\	2r	.	2E\	.	2c\	.	2c\	-lei-	2e\	-lei-	2cc\	-lei-	2cc\	-lei-
2E\	2r	.	2E\	-son	2c\	-son	2c\	-son	2e\	-son	2cc\	-son	2cc\	-son
*	*	*	*	*	*	*ij	*	*	*	*	*	*	*	*
2E\	2G\	e-	2E\	e-	2c\	e-	2c\	e-	2e\	e-	2cc\	e-	2cc\	e-
!	!LO:LB:g=original	!	!	!	!	!	!	!	!	!	!	!	!	!
=27	=27	=27	=27	=27	=27	=27	=27	=27	=27	=27	=27	=27	=27	=27
2.E\	2.G\	-lei-	2.E\	-lei-	2c\	-lei-	2e\	-lei-	2c\	-lei-	2cc\	-lei-	2cc\	-lei-
.	.	.	.	.	2c\	-son	2e\	-son	2c\	-son	2cc\	-son	2cc\	-son
*	*	*	*	*	*	*	*	*	*	*	*	*Xij	*	*Xij
4D\	4F\	.	4D\	.	.	.	.	.	.	.	.	.	.	.
4E\	4G\	.	4E\	.	2c\	e-	2e\	e-	2c\	e-	2cc\	e-	2cc\	e-
4D\	4F\	.	4D\	.	.	.	.	.	.	.	.	.	.	.
!	!	!	!	!	!	!	!	!	!	!	!LO:LB:g=original	!	!LO:LB:g=original	!
=28	=28	=28	=28	=28	=28	=28	=28	=28	=28	=28	=28	=28	=28	=28
2C/	2E\	.	2C/	.	2c\	-lei-	2c\	-lei-	2e\	-lei-	2cc\	-lei-	2cc\	-lei-
2C/	2E\	-son	2C/	-son	2c\	-son	2c\	-son	2e\	-son	2cc\	-son	2cc\	-son
*	*	*	*	*	*	*	*	*	*	*Xij	*	*ij	*	*
4E\	2E\	e-	4E\	e-	2c\	e-	2e\	e-	2g\	e-	2cc\	e-	2ee\	e-
4F\	.	.	4F\	-lei-	.	.	.	.	.	.	.	.	.	.
!	!	!	!	!	!	!	!	!	!LO:LB:g=original	!	!	!	!	!
=29	=29	=29	=29	=29	=29	=29	=29	=29	=29	=29	=29	=29	=29	=29
2G\	1.G	-lei-	2G\	-son	2d\	-lei-	2d\	-lei-	2g\	-lei-	2b\	-lei-	2dd\	-lei-
2B\	.	.	2B\	e-	2B\	-son	2d\	-son	2g\	-son	2b\	-son	2dd\	-son
*	*	*	*	*	*	*Xij	*	*Xij	*	*	*	*	*	*ij
2c\	.	.	2c\	-lei-	2c\	e-	2e\	e-	2g\	e-	2cc\	e-	2ee\	e-
=30	=30	=30	=30	=30	=30	=30	=30	=30	=30	=30	=30	=30	=30	=30
2G\	1.G	.	2G\	-son	4d\	-lei-	1d	-lei-	1.g	-lei-	2b\	-lei-	2dd\	-lei-
.	.	.	.	.	4c\	.	.	.	.	.	.	.	.	.
*	*	*	*	*ij	*	*	*	*	*	*	*	*	*	*
2B\	.	.	2B\	e-	4B\	.	.	.	.	.	2b\	-son	2dd\	-son
.	.	.	.	.	4A\	.	.	.	.	.	.	.	.	.
2c\	.	.	2c\	-lei-	2G/	.	2e\	.	.	.	2cc\	e-	2ee\	e-
=31	=31	=31	=31	=31	=31	=31	=31	=31	=31	=31	=31	=31	=31	=31
2G\	2G\	.	2G\	-son	4d\	.	2e\	-son	2g\	.	2b\	-lei-	2dd\	-lei-
.	.	.	.	.	4c\	.	.	.	.	.	.	.	.	.
2G\	2G\	-son	2G\	.	4B\	.	2e\	.	2g\	-son	2b\	-son	2dd\	-son
.	.	.	.	.	4A\	.	.	.	.	.	.	.	.	.
*	*	*	*	*Xij	*	*	*	*	*	*	*	*Xij	*	*Xij
2c\	2c\	e-	2c\	e-	2G/	.	2e\	e-	2g\	e-	2cc\	e-	2ee\	e-
!	!	!	!LO:LB:g=original	!	!LO:LB:g=original	!	!	!	!	!	!	!	!	!
=32	=32	=32	=32	=32	=32	=32	=32	=32	=32	=32	=32	=32	=32	=32
2C/	1.c	-lei-	2C/	-lei-	4e\	.	2e\	-lei-	2g\	-lei-	1.cc	-lei-	1.cc	-lei-
.	.	.	.	.	4d\	.	.	.	.	.	.	.	.	.
2E\	.	.	2E\	-son	4c\	.	2e\	-son	2g\	-son	.	.	.	.
.	.	.	.	.	4B\	.	.	.	.	.	.	.	.	.
*	*	*	*	*ij	*	*	*	*	*	*ij	*	*	*	*
2F\	.	.	2F\	e-	2c\	.	2f\	e-	2a\	e-	.	.	.	.
!	!	!	!	!	!	!	!LO:LB:g=original	!	!	!	!	!	!	!
=33	=33	=33	=33	=33	=33	=33	=33	=33	=33	=33	=33	=33	=33	=33
2C/	1.c	.	2C/	-lei-	4e\	.	2e\	-lei-	2g\	-lei-	1.cc	.	1.cc	.
.	.	.	.	.	4d\	.	.	.	.	.	.	.	.	.
2E\	.	.	2E\	-son	4c\	.	2e\	-son	2g\	-son	.	.	.	.
.	.	.	.	.	4B\	.	.	.	.	.	.	.	.	.
2F\	.	.	2F\	e-	2c\	.	2f\	e-	2a\	e-	.	.	.	.
!LO:LB:g=original	!	!	!	!	!	!	!	!	!	!	!	!	!	!
=34	=34	=34	=34	=34	=34	=34	=34	=34	=34	=34	=34	=34	=34	=34
2C/	2C/	.	2C/	-lei-	2c\	.	2e\	-lei-	2g\	-lei-	2cc\	.	2ee\	.
2C/	2C/	-son	2C/	-son	2c\	-son	2e\	-son	2g\	-son	2cc\	-son	2ee\	-son
*	*	*	*	*	*	*	*	*	*	*	*	*ij	*	*
2C/	2C/	e-	2C/	e-	2c\	e-	4f\	Chri-	2g\	e-	2cc\	e-	2ee\	e-
.	.	.	.	.	.	.	8g\L	.	.	.	.	.	.	.
.	.	.	.	.	.	.	8a\J	.	.	.	.	.	.	.
=35	=35	=35	=35	=35	=35	=35	=35	=35	=35	=35	=35	=35	=35	=35
2G\	1G	-lei-	1G	-lei-	1B	-lei-	4g\	-ste	1g	-lei-	1b	-lei-	1dd	-lei-
.	.	.	.	.	.	.	4f\	[e]-	.	.	.	.	.	.
1G	.	.	.	.	.	.	4e\	-l[[ei]]-	.	.	.	.	.	.
.	.	.	.	.	.	.	4d\	.	.	.	.	.	.	.
!	!	!	!	!	!	!	!LO:TX:t=P:problem:tekst: ſen poprawione na ſon 	!	!	!	!	!	!	!
.	2G\	-ſon	2G\	-son	2B\	-son	2c\	-ſon	2g\	-son	2b\	-son	2dd\	-son
*	*	*	*	*Xij	*	*	*	*	*	*Xij	*	*Xij	*	*
=36	=36	=36	=36	=36	=36	=36	=36	=36	=36	=36	=36	=36	=36	=36
2.A\	2.A\	Ky-	2.A\	Ky-	2.e\	Ky-	2.e\	Ky-	2.a\	Ky-	2.a\	Ky-	2.cc\	Ky-
4A\	4A\	-ri-	4A\	-ri-	4e\	-ri-	4e\	-ri-	4a\	-ri-	4a\	-ri-	4cc\	-ri-
2A\	2A\	-e	2A\	-e	2e\	-e	2e\	-e	2a\	-e	2a\	-e	2cc\	-e
!	!LO:LB:g=original	!	!	!	!	!	!	!	!LO:LB:g=original	!	!LO:LB:g=original	!	!LO:LB:g=original	!
=37	=37	=37	=37	=37	=37	=37	=37	=37	=37	=37	=37	=37	=37	=37
*	*	*	*	*ij	*	*ij	*	*ij	*	*	*	*	*	*
2.E\	2.E\	Ky-	2.E\	Ky-	2.e\	Ky-	2.e\	Ky-	2.g#X\	Ky-	2.g#X\	Ky-	2.b\	Ky-
4E\	4E\	-ri-	4E\	-ri-	4e\	-ri-	4e\	-ri-	4g#\	-ri-	4g#\	-ri-	4b\	-ri-
2E\	2E\	-e	2E\	-e	2e\	-e	2e\	-e	2g#\	-e	2g#\	-e	2b\	-e
*	*	*	*	*	*	*Xij	*	*	*	*	*	*	*	*
=38	=38	=38	=38	=38	=38	=38	=38	=38	=38	=38	=38	=38	=38	=38
!	!	!	!	!	!	!	!	!	!	!	!LO:TX:t=P:problem:brak taktu	!	!	!
*	*	*ij	*	*	*	*	*	*	*	*ij	*	*	*	*ij
2.A\	2.A\	Ky-	2.A\	Ky-	2.e\	Ky-	2.a\	Ky-	2.a\	Ky-	2.a\yy	Ky-	2.cc\	Ky-
4A\	4A\	-ri-	4A\	-ri-	4e\	-ri-	4a\	-ri-	4a\	-ri-	4a\yy	-ri-	4cc\	-ri-
2A\	2A\	-e	2A\	-e	2e\	-e	2a\	-e	2a\	-e	2a\yy	-e	2cc\	-e
*	*	*Xij	*	*Xij	*	*	*	*Xij	*	*Xij	*	*	*	*Xij
!	!	!	!LO:LB:g=original	!	!	!	!	!	!	!	!	!	!	!
=39	=39	=39	=39	=39	=39	=39	=39	=39	=39	=39	=39	=39	=39	=39
1E	2E\	e-	1E	e-	2e\	e-	2g#X\	e-	2g#X\	e-	1g#X	e-	2b\	e-
.	1A	-lei-	.	.	1e	-lei-	1a	-lei-	1a	-lei-	.	.	2b\	-lei-
2A\	.	.	2A\	-lei-	.	.	.	.	.	.	2a\	-lei-	2cc\	-son
!	!	!	!	!	!	!	!LO:LB:g=original	!	!	!	!	!	!	!
=40	=40	=40	=40	=40	=40	=40	=40	=40	=40	=40	=40	=40	=40	=40
!LO:TX:t=P:problem:zbędne takty w C II, A I, II	!LO:TX:t=P:problem:zbędne takty w C II, A I, II	!	!LO:TX:t=P:problem:zbędne takty w C II, A I, II	!	!LO:TX:t=P:problem:zbędne takty w C II, A I, II	!	!LO:TX:t=P:problem:zbędny takt	!	!LO:TX:t=P:problem:zbędny takt	!	!LO:TX:t=P:problem:zbędny takt	!	!LO:TX:t=P:problem:zbędne takty w C II, A I, II	!
1.ryy	1.ryy	.	1.ryy	.	1.ryy	.	2g#X\	-son	1g#X	-son	1g	-son	1.ryy	.
.	.	.	.	.	.	.	1a	e-	.	.	.	.	.	.
.	.	.	.	.	.	.	.	.	2a\	e-	2a\	e-	.	.
=41	=41	=41	=41	=41	=41	=41	=41	=41	=41	=41	=41	=41	=41	=41
!	!	!	!	!	!	!	!	!	!	!	!LO:SIC:v:s=2g#	!	!	!
2E\	2E\	-son	2E\	-son	1e	-son	2e\	-lei-	2g#X\	-lei-	2g\	-lei-	2b\	Ky-
!	!	!	!	!	!	!	!	!	!	!	!LO:SIC:v:s=2g#	!	!	!
2E\	2E\	.	2E\	e-	.	.	2e\	-ſon	2g#\	-son	2g\	-ſon	2b\	-ri-
*	*	*	*	*	*	*	*	*ij	*	*ij	*	*ij	*	*
2A\	2A\	e-	2A\	-lei-	4c\	e-	2f\	e-	2a\	e-	2a\	e-	2cc\	-e
.	.	.	.	.	4e\	.	.	.	.	.	.	.	.	.
!	!	!	!	!	!LO:LB:g=original	!	!	!	!	!	!	!	!	!
=42	=42	=42	=42	=42	=42	=42	=42	=42	=42	=42	=42	=42	=42	=42
*	*	*	*	*	*	*	*	*	*	*	*	*	*	*ij
1.G	2G\	-lei-	1.G	.	4d\	-lei-	2d\	-lei-	2g\	-lei-	2b\	-lei-	2dd\	Ky-
.	.	.	.	.	4c\	.	.	.	.	.	.	.	.	.
.	2B\	-son	.	.	4B\	.	2d\	-ſon	2g\	-son	2b\	-ſon	2dd\	-ri-
.	.	.	.	.	4d\	.	.	.	.	.	.	.	.	.
*	*	*ij	*	*	*	*	*	*Xij	*	*	*	*	*	*
.	2c\	e-	.	.	4c\	.	2e\	e-	2g\	e-	2cc\	e-	2ee\	-e
.	.	.	.	.	4e\	.	.	.	.	.	.	.	.	.
*	*	*	*	*	*	*	*	*	*	*	*	*	*	*Xij
=43	=43	=43	=43	=43	=43	=43	=43	=43	=43	=43	=43	=43	=43	=43
!	!	!	!	!	!	!	!LO:SIC:v:s=4d	!	!	!	!	!	!	!
1.G	2G\	-lei-	1.G	.	4d\	.	4e\	-lei-	2g\	-lei-	2b\	-lei-	2dd\	e-
!	!	!	!	!	!	!	!LO:SIC:v:s=4c	!	!	!	!	!	!	!
.	.	.	.	.	4c\	.	4d\	.	.	.	.	.	.	.
!	!	!	!	!	!	!	!LO:SIC:v:s=4B	!	!	!	!	!	!	!
.	2B\	-son	.	.	4B\	.	4c\	.	2g\	-son	2b\	-ſon	2dd\	-lei-
*	*	*	*	*	*	*	*	*	*	*Xij	*	*Xij	*	*
.	.	.	.	.	4d\	.	4d\	.	.	.	.	.	.	.
.	2c\	e-	.	.	4c\	.	2e\	-son	2g\	e-	2cc\	e-	2ee\	-son
.	.	.	.	.	4e\	.	.	.	.	.	.	.	.	.
=44	=44	=44	=44	=44	=44	=44	=44	=44	=44	=44	=44	=44	=44	=44
1.c	2C/	-lei-	1.c	.	4c\	.	2e\	Chri-	2g\	-lei-	1.cc	-lei-	2ee\	Ky-
.	.	.	.	.	4d\	.	.	.	.	.	.	.	.	.
!	!	!	!	!	!	!	!	!	!LO:LB:g=original	!	!	!	!	!
.	2E\	-son	.	.	4c\	.	2e\	-ste	2g\	-son	.	.	2ee\	-ri-
.	.	.	.	.	4d\	.	.	.	.	.	.	.	.	.
*	*	*	*	*	*	*	*	*	*	*ij	*	*	*	*
.	2F\	e-	.	.	4c\	.	2f\	e-	2a\	e-	.	.	2ff\	-e
.	.	.	.	.	4f\	.	.	.	.	.	.	.	.	.
!LO:LB:g=original	!	!	!	!	!	!	!	!	!	!	!	!	!LO:LB:g=original	!
=45	=45	=45	=45	=45	=45	=45	=45	=45	=45	=45	=45	=45	=45	=45
1.c	2C/	-lei-	1.c	.	4c\	.	2e\	.	2g\	-lei-	1.cc	.	2ee\	e-
.	.	.	.	.	4d\	.	.	.	.	.	.	.	.	.
.	2E\	-son	.	.	4c\	.	2e\	-lei-	2g\	-son	.	.	2ee\	-lei-
*	*	*Xij	*	*	*	*	*	*	*	*	*	*	*	*
.	.	.	.	.	4d\	.	.	.	.	.	.	.	.	.
.	2F\	e-	.	.	4c\	.	2f\	-son	2a\	e-	.	.	2ff\	-son
.	.	.	.	.	4f\	.	.	.	.	.	.	.	.	.
!	!LO:LB:g=original	!	!	!	!	!	!	!	!	!	!LO:LB:g=original	!	!	!
=46	=46	=46	=46	=46	=46	=46	=46	=46	=46	=46	=46	=46	=46	=46
!	!	!	!	!	!LO:SIC:v:s=2e	!	!	!	!	!	!	!	!	!
2c\	2c\	-le[i]-	2c\	.	2d\	.	2e\	e-	2g\	-lei-	2cc\	.	2ee\	e-
2G\	(2G\	.	2G\	.	1B	.	1d	-lei-	1g	-son	1b	.	1dd	-lei-
2GG/	2GG/)	.	2GG/	.	.	.	.	.	.	.	.	.	.	.
*	*	*	*	*	*	*	*	*	*	*Xij	*	*	*	*
=47	=47	=47	=47	=47	=47	=47	=47	=47	=47	=47	=47	=47	=47	=47
2C/	2C/	-son	2C/	-son	2c\	-son	2e\	-son	2g\	.	2cc\	-son	2cc\	-son
4r	4r	.	4r	.	4r	.	4r	.	4r	.	4r	.	4r	.
4c\	4c\	Chri-	4c\	Chri-	4c\	e-	4e\	e-	4g\	e-	4cc\	Chri-	4ee\	Chri-
4B\	(4B\	-ste	4B\	-ste	2B\	-lei-	2d\	-lei-	2g\	-le[i]-	4b\	-ste	(4dd\	-ste
4A\	4A\)	.	4A\	.	.	.	.	.	.	.	4a\	.	4cc\)	.
!	!	!	!	!	!	!	!LO:LB:g=original	!	!	!	!	!	!	!
=48	=48	=48	=48	=48	=48	=48	=48	=48	=48	=48	=48	=48	=48	=48
2B\	2G\	e-	2B\	.	2B\	-son	2d\	-son	2g\	-son	2b\	e-	2dd\	e-
4r	4r	.	4r	.	4r	.	4r	.	4r	.	4r	.	4r	.
*	*	*	*	*	*	*ij	*	*	*	*ij	*	*	*	*
4c\	4c\	.	4c\	e-	4c\	e-	4e\	e-	4g\	e-	4cc\	.	4ee\	.
4B\	4B\	.	4B\	-lei-	2B\	-lei-	2d\	-lei-	2g\	-le[i]-	(4b\	-lei-	(4dd\	-lei-
!	!	!	!LO:TX:t=P:problem:brak kreski taktowej	!	!	!	!	!	!	!	!	!	!	!
4A\	4A\	-lei-	4A\	.	.	.	.	.	.	.	4a\)	.	4cc\)	.
!	!	!	!LO:LB:g=original	!	!	!	!	!	!	!	!	!	!	!
=49	=49	=49	=49	=49	=49	=49	=49	=49	=49	=49	=49	=49	=49	=49
2G\	2B\	-son	2G\	-son	2B\	-son	2d\	-son	2g\	-son	2b\	-son	2dd\	-son
4r	4r	.	4r	.	4r	.	4r	.	4r	.	4r	.	4r	.
!	!	!	!	!	!	!	!LO:SIC:v:s=4e	!	!	!	!	!	!	!
*	*	*	*	*	*	*Xij	*	*ij	*	*	*	*	*	*
4A\	4A\	Chri-	4A\	Chri-	4e\	e-	4f\	e-	4a\	e-	4a\	e-	4cc\	Chri-
4G#X\	(4G#X\	-ste	4G#X\	-ste	2e\	-lei-	2e\	-lei-	2g#X\	-le[i]-	2g#X/	-lei-	(4b\	-ste
!LO:SIC:v:s=4F#	!	!	!LO:SIC:v:s=4F#	!	!	!	!	!	!	!	!	!	!	!
4F\	4F#X\)	.	4F\	.	.	.	.	.	.	.	.	.	4a\)	.
!	!	!	!	!	!LO:LB:g=original	!	!	!	!LO:LB:g=original	!	!	!	!	!
=50	=50	=50	=50	=50	=50	=50	=50	=50	=50	=50	=50	=50	=50	=50
!	!	!	!	!	!	!	!	!	!LO:SIC:v:s=2g#	!	!LO:SIC:v:s=2g#	!	!	!
2E\	2G#X\	.	2E\	.	2e\	-son	2e\	-son	2g\	-son	2g/	-son	2b\	e-
4r	4r	.	4r	.	4r	.	4r	.	4r	.	4r	.	4r	.
!	!	!	!	!	!	!	!LO:SIC:v:s=4e	!	!	!	!	!	!	!
*	*	*	*	*	*	*ij	*	*	*	*Xij	*	*ij	*	*
4A\	4A\	e-	4A\	e-	4e\	e-	4f\	e-	4a\	e-	4a\	e-	4cc\	.
!	!	!	!	!	!	!	!LO:TX:t=P:problem:kreska taktowa poprawiona na 2e	!	!	!	!	!	!	!
4G#X\	4G#X\	-lei-	4G#X\	-lei-	2e\	-lei-	2e\	-lei-	2g#X\	-lei-	2g#X/	-lei-	(4b\	-lei-
!LO:SIC:v:s=4F#	!	!	!LO:SIC:v:s=4F#	!	!	!	!	!	!	!	!	!	!	!
4F\	4F#X\	.	4F\	.	.	.	.	.	.	.	.	.	4a\)	.
!	!	!	!	!	!	!	!	!	!	!	!	!	!LO:LB:g=original	!
=51	=51	=51	=51	=51	=51	=51	=51	=51	=51	=51	=51	=51	=51	=51
!	!LO:SIC:v:s=2G#	!	!	!	!	!	!	!	!	!	!LO:SIC:v:s=2g#	!	!	!
2E\	2G\	-son	2E\	-son	2e\	-son	2e\	-son	2g#X\	-son	2g/	-son	2b\	-son
*	*	*	*	*ij	*	*	*	*	*	*	*	*Xij	*	*
4r	4r	.	4r	.	4r	.	4r	.	4r	.	4r	.	4r	.
4F\	4F\	e-	4F\	e-	4c\	e-	4f\	e-	4a\	e-	4cc\	e-	4cc\	e-
!	!	!	!	!	!	!	!	!	!LO:SIC:v:s=4gn	!	!	!	!	!
(4E\	4E\	-lei-	(4E\	-lei-	2c\	-lei-	2e\	-lei-	4g#\	-lei-	2cc\	-lei-	2cc\	-lei-
4D\)	4D\	.	4D\)	.	.	.	.	.	4f\	.	.	.	.	.
!LO:LB:g=original	!	!	!	!	!	!	!	!	!	!	!LO:LB:g=original	!	!	!
=52	=52	=52	=52	=52	=52	=52	=52	=52	=52	=52	=52	=52	=52	=52
2C/	2E\	-son	2C/	-son	2c\	-son	2e\	-son	2g\	-son	2cc\	-son	2cc\	-son
4r	4r	.	4r	.	4r	.	4r	.	4r	.	4r	.	4r	.
!	!LO:LB:g=original	!	!	!	!	!	!	!	!	!	!	!	!	!
*	*	*	*	*Xij	*	*Xij	*	*Xij	*	*ij	*	*	*	*
4F\	(4F\	e-	4F\	Chri-	4c\	e-	4f\	Chri-	4a\	e-	4cc\	e-	4cc\	e-
4E\	4E\)	.	4E\	-ste	2c\	-lei-	4e\	-ste	4g\	-lei-	2cc\	-lei-	2cc\	-lei-
!	!	!	!	!	!	!	!LO:TX:t=P:problem:wykreślony takt	!	!	!	!	!	!	!
4D\	4D\	-lei-	4D\	e-	.	.	4d\	e-	4f\	.	.	.	.	.
=53	=53	=53	=53	=53	=53	=53	=53	=53	=53	=53	=53	=53	=53	=53
4C/	4C\	.	4C/	.	4c\	-son	4e\	.	4g\	-son	4cc\	-son	4cc\	-son
*	*	*	*	*	*	*	*	*	*	*	*	*ij	*	*
4F\	4F\	.	4F\	.	4d\	e-	4f\	.	4a\	e-	4cc\	e-	4ee\	e-
!	!	!	!	!	!LO:N:vis=2	!	!	!	!	!	!	!	!	!
2G\	2G\	.	2G\	.	1B	-le[i]-	1d	-le[i]-	1g	-lei-	1b	-lei-	1dd	-lei-
2GG/	2GG/	.	2GG/	-lei-	.	.	.	.	.	.	.	.	.	.
!	!	!	!	!	!	!	!LO:LB:g=original	!	!	!	!	!	!	!
=54	=54	=54	=54	=54	=54	=54	=54	=54	=54	=54	=54	=54	=54	=54
2C/	2C/	-son	2C/	-son	2c\	-ſon	2e\	-ſon	2g\	-son	2cc\	-son	2ee\	-son
*	*	*	*	*	*	*	*	*	*	*Xij	*	*Xij	*	*
4c\	4c\	Ky-	4c\	Ky-	4e\	Ky-	4e\	Ky-	4g\	Ky-	4cc\	Ky-	4ee\	Ky-
4c\	4c\	-ri-	4c\	-ri-	4c\	-ri-	4e\	-ri-	4g\	-ri-	4cc\	-ri-	4ee\	-ri-
2c\	2c\	-e	2c\	-e	2c\	-e	2e\	-e	2g\	-e	2cc\	-e	2ee\	-e
=55||:	=55	=55	=55||:	=55	=55	=55	=55	=55	=55	=55	=55	=55	=55	=55
!	!	!	!	!	!LO:N:vis=4	!	!LO:TX:t=P:problem:brak taktu	!	!LO:TX:t=P:problem:brak taktu	!	!LO:N:vis=4	!	!LO:N:vis=4	!
2r	2r	.	2r	.	2r	.	2ryy	.	2ryy	.	2r	.	2r	.
*	*	*	*	*ij	*	*	*	*	*	*	*	*ij	*	*ij
4G\	4G\	Ky-	4G\	Ky-	4d\	Ky-	4g\yy	Ky-	4g\yy	Ky-	4b\	Ky-	4dd\	Ky-
4G\	4G\	-ri-	4G\	-ri-	4B\	-ri-	4g\yy	-ri-	4g\yy	-ri-	4b\	-ri-	4dd\	-ri-
2G\	2G\	-e	2G\	-e	2B\	-e	2g\yy	-e	2g\yy	-e	2b\	-e	2dd\	-e
*	*	*	*	*Xij	*	*	*	*	*	*	*	*	*	*
!	!	!	!LO:LB:g=original	!	!	!	!	!	!	!	!	!	!	!
=56	=56	=56	=56	=56	=56	=56	=56	=56	=56	=56	=56	=56	=56	=56
!	!	!	!	!	!LO:N:vis=4	!	!LO:N:vis=4	!	!LO:N:vis=4	!	!LO:N:vis=4	!	!LO:N:vis=4	!
2r	2r	.	2r	.	2r	.	2r	.	2r	.	2r	.	2r	.
*	*	*ij	*	*	*	*ij	*	*ij	*	*	*	*	*	*
4C/	4C/	Ky-	4C/	Ky-	4e\	Ky-	4e\	Ky-	4g\	Ky-	4cc\	Ky-	4ee\	Ky-
4C/	4C/	-ri-	4C/	-ri-	4c\	-ri-	4e\	-ri-	4g\	-ri-	4cc\	-ri-	4ee\	-ri-
2C/	2C/	-e	2C/	-e	2c\	-e	2e\	-e	2g\	-e	2cc\	-e	2ee\	-e
*	*	*	*	*	*	*Xij	*	*	*	*	*	*	*	*
=57	=57	=57	=57	=57	=57	=57	=57	=57	=57	=57	=57	=57	=57	=57
!	!	!	!LO:N:vis=4	!	!LO:N:vis=4	!	!LO:N:vis=4	!	!LO:N:vis=4	!	!LO:N:vis=4	!	!LO:N:vis=4	!
2r	2r	.	2r	.	2r	.	2r	.	2r	.	2r	.	2r	.
*	*	*	*	*ij	*	*	*	*	*	*ij	*	*	*	*
4F\	4F\	Ky-	4F\	Ky-	4f\	Ky-	4f\	Ky-	4a\	Ky-	4cc\	Ky-	4ff\	Ky-
4F\	4F\	-ri-	4F\	-ri-	4c\	-ri-	4f\	-ri-	4a\	-ri-	4cc\	-ri-	4ff\	-ri-
2F\	2F\	-e	2F\	-e	2c\	-e	2f\	-e	2a\	-e	2cc\	-e	2ff\	-e
*	*	*Xij	*	*Xij	*	*	*	*Xij	*	*Xij	*	*Xij	*	*Xij
!	!	!	!	!	!LO:LB:g=original	!	!	!	!	!	!	!	!LO:LB:g=original	!
=58	=58	=58	=58	=58	=58	=58	=58	=58	=58	=58	=58	=58	=58	=58
2.E\	2.C/	Ky-	2.E\	Ky-	2.c\	Ky-	2.e\	Ky-	2.g\	Ky-	2.cc\	Ky-	2.ee\	Ky-
!	!	!	!	!	!	!	!	!	!	!	!LO:SIC:v:s=4b	!	!	!
4D\	4D/	-ri-	4D\	-ri-	4d\	-ri-	4d\	-ri-	4f\	-ri-	4cc\	-ri-	4dd\	-ri-
2C/	2E\	-e	2C\	-e	2e\	-e	2c\	-e	2e\	-e	2cc\	-e	2cc\	-e
!	!	!	!	!	!	!	!	!	!LO:LB:g=original	!	!LO:LB:g=original	!	!	!
=59	=59	=59	=59	=59	=59	=59	=59	=59	=59	=59	=59	=59	=59	=59
4F\	(4F\	e-	4F\	e-	4d\	e-	2f\	e-	2a\	e-	(4cc\	e-	(4cc\	e-
!	!	!	!	!	!	!	!	!	!	!	!LO:SIC:v:s=4ee	!	!	!
4A\	4A\)	.	4A\	.	4c\	-lei-	.	.	.	.	4dd\)	.	4ee\)	.
2G\	(2G\	-lei-	2G\	-lei-	2B\	.	1d	-lei-	1g	-lei-	1b	-lei-	1dd	-lei-
2GG/	2GG/)	.	2GG/	.	2d\	.	.	.	.	.	.	.	.	.
!LO:LB:g=original	!LO:LB:g=original	!	!	!	!	!	!	!	!	!	!	!	!	!
=60:||	=60	=60	=60:||	=60	=60	=60	=60	=60	=60	=60	=60	=60	=60	=60
!LO:TX:t=P:problem:brak taktu	!	!	!LO:TX:t=P:problem:brak taktu	!	!	!	!	!	!	!	!	!	!	!
2C/yy	2C/	-son	2C/yy	-son	2e\	-son	2e\	-son	2g\	-son	2cc\	-son	2cc\	-son
4c\yy	4c\	Ky-	4c\yy	Ky-	4c\	Ky-	4e\	Ky-	4g\	Ky-	4cc\	Ky-	4ee\	Ky-
4c\yy	4c\	-ri-	4c\yy	-ri-	4c\	-ri-	4e\	-ri-	4g\	-ri-	4cc\	-ri-	4ee\	-ri-
2C/yy	2C/	-e	2C/yy	-e	2c\	-e	2e\	-e	2g\	-e	2cc\	-e	2ee\	-e
=61	=61	=61	=61	=61	=61	=61	=61	=61	=61	=61	=61	=61	=61	=61
!LO:TX:t=P:problem:takty 61-65 zapisane repetycją	!	!	!LO:TX:t=P:problem:takty 61-65 zapisane repetycją	!	!LO:N:vis=4	!	!LO:N:vis=4	!	!LO:N:vis=4	!	!LO:N:vis=4	!	!LO:N:vis=4	!
2ryy	2r	.	2ryy	.	2r	.	2r	.	2r	.	2r	.	2r	.
*	*	*ij	*	*ij	*	*	*	*ij	*	*ij	*	*ij	*	*ij
4G\yy	4G\	Ky-	4G\yy	Ky-	4d\	Ky-	4g\	Ky-	4g\	Ky-	4b\	Ky-	4dd\	Ky-
4G\yy	4G\	-ri-	4G\yy	-ri-	4B\	-ri-	4g\	-ri-	4g\	-ri-	4b\	-ri-	4dd\	-ri-
2G\yy	2G\	-e	2G\yy	-e	2B\	-e	2g\	-e	2g\	-e	2b\	-e	2dd\	-e
*	*	*	*	*Xij	*	*	*	*Xij	*	*	*	*	*	*
=62	=62	=62	=62	=62	=62	=62	=62	=62	=62	=62	=62	=62	=62	=62
!	!	!	!	!	!LO:N:vis=4	!	!LO:N:vis=4	!	!LO:N:vis=4	!	!LO:N:vis=4	!	!LO:N:vis=4	!
2ryy	2r	.	2ryy	.	2r	.	2r	.	2r	.	2r	.	2r	.
*	*	*	*	*	*	*ij	*	*	*	*	*	*	*	*
4C/yy	4C/	Ky-	4C/yy	Ky-	4e\	Ky-	4e\	Ky-	4g\	Ky-	4cc\	Ky-	4ee\	Ky-
!	!	!	!	!	!	!	!LO:LB:g=original	!	!	!	!	!	!	!
4C/yy	4C/	-ri-	4C/yy	-ri-	4c\	-ri-	4e\	-ri-	4g\	-ri-	4cc\	-ri-	4ee\	-ri-
2C/yy	2C/	-e	2C/yy	-e	2c\	-e	2e\	-e	2g\	-e	2cc\	-e	2ee\	-e
=63	=63	=63	=63	=63	=63	=63	=63	=63	=63	=63	=63	=63	=63	=63
!	!	!	!LO:N:vis=4	!	!LO:N:vis=4	!	!LO:N:vis=4	!	!LO:N:vis=4	!	!LO:N:vis=4	!	!LO:N:vis=4	!
2ryy	2r	.	2ryy	.	2r	.	2r	.	2r	.	2r	.	2r	.
*	*	*	*	*ij	*	*	*	*ij	*	*	*	*	*	*
4F\yy	4F\	Ky-	4F\yy	Ky-	4c\	Ky-	4f\	Ky-	4a\	Ky-	4cc\	Ky-	4ff\	Ky-
4F\yy	4F\	-ri-	4F\yy	-ri-	4c\	-ri-	4f\	-ri-	4a\	-ri-	4cc\	-ri-	4ff\	-ri-
2F\yy	2F\	-e	2F\yy	-e	2c\	-e	2f\	-e	2a\	-e	2cc\	-e	2ff\	-e
*	*	*Xij	*	*Xij	*	*Xij	*	*Xij	*	*Xij	*	*Xij	*	*
=64	=64	=64	=64	=64	=64	=64	=64	=64	=64	=64	=64	=64	=64	=64
2.E\yy	2.E\	Ky-	2.E\yy	Ky-	2.e\	Ky-	2.e\	Ky-	2.g\	Ky-	2.cc\	Ky-	2.ee\	Ky-
4D\yy	4D\	-ri-	4D\yy	-ri-	4d\	-ri-	4d\	-ri-	4f\	-ri-	4b\	-ri-	4dd\	-ri-
2C\yy	2C/	-e	2C\yy	-e	2c\	-e	2c\	-e	2e\	-e	2cc\	-e	2cc\	-e
*	*	*	*	*	*	*	*	*	*	*	*	*	*	*Xij
!	!	!	!	!	!	!	!	!	!	!	!	!	!LO:LB:g=original	!
=65	=65	=65	=65	=65	=65	=65	=65	=65	=65	=65	=65	=65	=65	=65
4F\	(4F\	e-	4F\yy	e-	2c\	e-	2f\	e-	2a\	e-	2cc\	e-	4cc\	e-
4A\	4A\)	.	4A\yy	.	.	.	.	.	.	.	.	.	4ee\	-lei-
2G\	2G\	-lei-	2G\yy	-lei-	1d	-lei-	1d	-lei-	1g	-lei-	1b	-lei-	(2dd\	.
2GG/	2GG/	.	2GG/yy	.	.	.	.	.	.	.	.	.	2b\)	.
!	!	!	!	!	!	!	!	!	!	!	!LO:LB:g=original	!	!	!
=66	=66	=66	=66	=66	=66	=66	=66	=66	=66	=66	=66	=66	=66	=66
2C/	2C/	-son	2C/	-son	2e\	-son	2e\	-son	2g\	-son	2cc\	-son	2cc\	-son
4r	4r	.	4r	.	4r	.	4r	.	4r	.	4r	.	4r	.
!LO:SIC:v:s=4F	!	!	!LO:SIC:v:s=4F	!	!	!	!	!	!	!	!	!	!	!
!	!	!	!	!	!LO:LB:g=original	!	!	!	!	!	!	!	!	!
4E\	4F\	e-	4E\	e-	4c\	e-	4f\	e-	4a\	e-	4cc\	e-	4ee\	e-
4G\	(4G\	-lei-	4G\	-lei-	2B\	-lei-	2d\	-lei-	2g\	-lei-	2b\	-lei-	2dd\	-lei-
4GG/	4GG/)	.	4GG/	.	.	.	.	.	.	.	.	.	.	.
!	!LO:LB:g=original	!	!	!	!	!	!	!	!LO:LB:g=original	!	!	!	!	!
=67	=67	=67	=67	=67	=67	=67	=67	=67	=67	=67	=67	=67	=67	=67
2.C/	2.C/	-son	2.C/	-son	2.c\	-son	2.e\	.	2.g\	-son	2.cc\	-son	2.cc\	-son
4G\	4G\	e-	4G\	e-	4d\	e-	4e\	.	4g\	Ky-	4b\	e-	4dd\	e-
4c\	2G\	-lei-	4c\	-lei-	4e\	.	2e\	-son	2g\	-rie	4cc\	-lei-	4ee\	-lei-
4G\	.	.	4G\	.	4d\	.	.	.	.	.	4b\	.	4dd\	.
!	!	!	!LO:LB:g=original	!	!	!	!	!	!	!	!	!	!	!
=68	=68	=68	=68	=68	=68	=68	=68	=68	=68	=68	=68	=68	=68	=68
*	*	*	*	*	*	*	*	*	*	*ij	*	*	*	*
2.C/	2.G\	.	2.C/	-son	2.c\	-lei-	2.e\	Ky-	2.g\	Ky-	2.cc\	-son	2.ee\	-son
*	*	*	*	*	*	*	*	*	*	*	*	*	*	*ij
4G\	4G\	.	4G\	e-	4d\	.	4e\	-ri-	4g\	-ri-	4b\	e-	4dd\	e-
4c\	2G\	.	4c\	-lei-	4e\	.	2e\	-e	2g\	-e	4cc\	-lei-	4ee\	-lei-
4G\	.	.	4G\	.	4d\	.	.	.	.	.	4b\	-son	4dd\	-son
*	*	*	*	*	*	*	*	*	*	*Xij	*	*	*	*
=69	=69	=69	=69	=69	=69	=69	=69	=69	=69	=69	=69	=69	=69	=69
2.C/	2.C/	-son	2.C/	.	2.c\	-son	2.e\	e-	2.g\	Ky-	2.cc\	Ky-	2.ee\	e-
4c\	4E\	.	4c\	.	4c\	e-	4e\	.	4g\	-ri-	4cc\	-ri-	4ee\	-lei-
2c\	4F\	e-	2c\	-son	2c\	-lei-	4f\	.	4a\	-e	2cc\	-e	4ff\	-son
.	4C/	-lei-	.	.	.	.	4e\	.	4g\	[e]-	.	.	4ee\	e-
!	!	!	!	!	!	!	!LO:LB:g=original	!	!	!	!	!	!	!
=70	=70	=70	=70	=70	=70	=70	=70	=70	=70	=70	=70	=70	=70	=70
!	!	!	!	!	!	!	!	!	!LO:SIC:v:l:s=-lei-	!	!	!	!	!
*	*	*	*	*	*	*	*	*	*	*	*	*ij	*	*
2.c\	2.F\	-son	2.c\	Ky-	2.c\	-son	2.f\	.	2.a\	-leis-	2.cc\	Ky-	2.ff\	-lei-
4c\	4E\	e-	4c\	-ri-	4c\	e-	4e\	-lei-	4g\	.	4cc\	-ri-	4ee\	-son
*	*	*	*	*	*	*	*	*	*	*	*	*	*	*Xij
2c\	4F\	-lei-	2c\	-e	2c\	-lei-	4f\	-son	4a\	-son	2cc\	-e	4ff\	e-
.	4C/	.	.	.	.	.	4e\	.	4g\	.	.	.	4ee\	-lei-
!	!	!	!	!	!	!	!	!	!	!	!	!	!LO:LB:g=original	!
=71	=71	=71	=71	=71	=71	=71	=71	=71	=71	=71	=71	=71	=71	=71
2c\	2F\	-son	2c\	Ky-	2c\	-[s]on	2f,\	.	2a,\	.	2cc\	Ky-	2ff\	-son
4F\	4F\	Ky-	4F\	.	4c\	Ky-	4f\	Ky-	4a\	Ky-	4cc\	-ri-	4ff\	Ky-
4F\	4F\	-ri-	4F\	-ri-	4c\	-ri-	4f\	-ri-	4a\	-ri-	4cc\	-e	4ff\	-ri-
*	*	*	*	*	*	*	*	*	*	*	*	*Xij	*	*
2F\	2F\	-e	2F\	-e	2c\	-e	2f\	-e	2a\	-e	2cc\	.	2ff\	-e
=72	=72	=72	=72	=72	=72	=72	=72	=72	=72	=72	=72	=72	=72	=72
!	!	!	!	!	!LO:SIC:v:s=2.c	!	!	!	!	!	!	!	!	!
*	*	*	*	*ij	*	*	*	*ij	*	*	*	*	*	*
2.E\	2.E\	Ky-	2.E\	Ky-	2.d\	Ky-	2.e\	Ky-	2.g\	Ky-	2.cc\	Ky-	2.ee\	Ky-
4D\	4D\	-ri-	4D\	-ri-	4B\	-ri-	4e\	-ri-	4g\	-ri-	4b\	-ri-	4dd\	-ri-
!	!	!	!	!	!LO:SIC:v:s=2A	!	!	!	!	!	!	!	!	!
2C/	2C/	-e	2C/	-e	2B\	-e	2e\	-e	2g\	-e	2a\	-e	2cc\	-e
*	*	*	*	*Xij	*	*	*	*Xij	*	*	*	*	*	*
!	!	!	!	!	!	!	!	!	!	!	!LO:LB:g=original	!	!	!
=73	=73	=73	=73	=73	=73	=73	=73	=73	=73	=73	=73	=73	=73	=73
!	!	!	!	!	!LO:SIC:v:s=2B	!	!	!	!	!	!	!	!	!
4F\	4F\	e-	4F\	.	2c\	e-	2f\	e-	2a\	e-	2b\	e-	2dd\	e-
4D\	4D\	.	4D\	e-	.	.	.	.	.	.	.	.	.	.
2G\	2G\	-lei-	2G\	-lei-	1B	-lei-	1d	-lei-	1g	-lei-	1b	-lei-	1dd	-lei-
2GG/	2GG/	.	2GG/	.	.	.	.	.	.	.	.	.	.	.
!LO:LB:g=original	!LO:LB:g=original	!	!	!	!	!	!	!	!	!	!	!	!	!
=74	=74	=74	=74	=74	=74	=74	=74	=74	=74	=74	=74	=74	=74	=74
1C	1C	-son	1C	-son	1c	-son	2e\	-son	1g	-son	1cc	-son	1ee	-son
.	.	.	.	.	.	.	1d	e-	.	.	.	.	.	.
2G\	2G\	e-	2G\	e-	2B\	e-	.	.	2g\	e-	2b\	e-	2dd\	e-
=75	=75	=75	=75	=75	=75	=75	=75	=75	=75	=75	=75	=75	=75	=75
2c\	2c\	-lei-	2c\	-lei-	2c\	-lei-	2e\	-lei-	2g\	-lei-	2cc\	-lei-	2ee\	-lei-
2c\	2c\	-son	2c\	-son	2c\	-son	2e\	-ſon	2g\	-son	2cc\	-son	2ee\	-son
2r	2r	.	2r	.	2r	.	2r	.	2r	.	2r	.	2r	.
==	==	==	==	==	==	==	==	==	==	==	==	==	==	==
*-	*-	*-	*-	*-	*-	*-	*-	*-	*-	*-	*-	*-	*-	*-
!!!system-decoration: [(s1,s2,s3,s4,s5,s6,s7)]s8
!!!ENC: Katarzyna Serwa
!!!END: 2021-02-09
!!!AIN: 2 alto 2 bass 1 organ 2 soprn 1 tenor
!!!ENC: Natalia Wrzos
!!!END: 2022-03-28
